X: 11473
T: Echoes Of Killarney
R: slide
M: 12/8
K: Gmajor
|:G2 G G2 A B2 g gfe|d2 B BAB d2 B ABA|
G2 G G2 A B2 gfe|1 d2 B ABA GAG G2 D:|2 d2 B ABA GAG GBd:|
|:g2 f e2 d e2 f g2 e|d2 B BAB d2 B BAB|
g2 f e2 d e2 f g2 e|1 d2 B ABA GAG GBd:|2 d2 B ABA GAG G2 D:|

